T: Gan Ainm
M: 6/8
L: 1/8
K: Cmaj
ede cBA|eGG eGG|ede cde|fBB fBB|
fef def|ede cde|ded Bcd|c6:|
|:g2 e g2 e|a2 f a2 f|g2 e g2 e|dGB dBd|
gee gee|aff aff|gfe fed|1 ceg c'ge:|2 c6||
